packages/sources/icons/src/vitamix/equalizer-fill.svg

<svg width="16" height="16" viewBox="0 0 16 16" fill="none" xmlns="http://www.w3.org/2000/svg">
<path fill-rule="evenodd" clip-rule="evenodd" d="M6.00001 1.33334C5.1517 1.33334 4.39561 1.86834 4.11334 2.66831H1.33334V4.00164H4.11334C4.39561 4.80162 5.1517 5.33661 6.00001 5.33661C6.84832 5.33661 7.60441 4.80162 7.88668 4.00164H14.6667V2.66831H7.88668C7.60441 1.86834 6.84832 1.33334 6.00001 1.33334ZM8.11334 7.33498C8.39561 6.535 9.1517 6.00001 10 6.00001C10.8483 6.00001 11.6044 6.535 11.8867 7.33498H14.6667V8.66831H11.8867C11.6044 9.46828 10.8483 10.0033 10 10.0033C9.1517 10.0033 8.39561 9.46828 8.11334 8.66831H1.33334V7.33498H8.11334ZM4.11334 12.0016C4.39561 11.2017 5.1517 10.6667 6.00001 10.6667C6.84832 10.6667 7.60441 11.2017 7.88668 12.0016H14.6667V13.335H7.88668C7.60441 14.135 6.84832 14.6699 6.00001 14.6699C5.1517 14.6699 4.39561 14.135 4.11334 13.335H1.33334V12.0016H4.11334Z" fill="#001018"/>
</svg>

<svg width="16" height="16" fill="none" xmlns="http://www.w3.org/2000/svg"><path fill-rule="evenodd" clip-rule="evenodd" d="M6 1.333a2 2 0 0 0-1.887 1.335h-2.78v1.334h2.78a2 2 0 0 0 3.774 0h6.78V2.668h-6.78A2 2 0 0 0 6 1.333zm2.113 6.002a2 2 0 0 1 3.774 0h2.78v1.333h-2.78a2 2 0 0 1-3.774 0h-6.78V7.335h6.78zm-4 4.667a2 2 0 0 1 3.774 0h6.78v1.333h-6.78a2 2 0 0 1-3.774 0h-2.78v-1.333h2.78z" fill="#001018"/></svg>
